X:1
T: Jig Kerr's 1st No24
C:
R:Jig
Q:180
K:D
M:6/8
L:1/16
|:D6 D6|d4B2 A2F2D2|B,6 C4D2|E2F2D2 C2B,2A,2|
D6D6|d4B2 A2F2D2|B,2C2D2 E2F2G2|A2B2c2 d4z2:|
|:F2D2F2 F2G2A2|B2d2c2 B2A2G2|F2D2E2 F2G2A2|B2e2d2 c2B2A2|
F2D2F2 F2G2A2|B2c2d2 e2f2g2|a2f2d2 b2g2e2|1c2B2c2 d2A2F2:|2c2B2c2 d6||
